X:255
T:Polska efter August Nyholm (SvL Hälsingland 255)
R:Polska
O:Delsbo, Hälsingland
S:August Nyholm
B:Svenska Låtar Hälsingland
N:Melodien är en variant av den s.k. Jössehäradspolskan.
M:3/4
L:1/8
K:G
d>B GA/B/ cA/B/|GB dB/d/ g2|d>B GA/B/ cA/B/|GA FA/F/ D2|
d>B GA/B/ cA/B/|GB dB/d/ g2|d>B GA/B/ cA/B/|G(A/F/) G2 G,2:|
|:g>f e^d/e/ fa|gf/g/ e^d/e/ B2|gf ef ga|(ag) gf f2|
g>f e^d/e/ fa|gf/g/ e^d/e/ B2|Bc Ac/B/ GA/B/|c(A/F/) G2 G,2:|

